X: 3
T: The Fair-haired Lass
R: reel
M: 4/4
L: 1/8
K: Amix
cd|ea ~a2 eg ~g2|ea ~a2 ABcd|ea ~a2 eg ~g2|affe d:||ed|c2 Ac BAGB|BA ~A2 BAGB|ABcd edcd|eage d2:||


Tune 1231	Setting 27244

